X: 27915
T: Mountain Road, The
R: reel
M: 4/4
K: Dmajor
DE|F2 AF BFAF|~F2 AF EFDE|F2 AF BFAF|~G3 F EDB,D|
F2 AF BFAF|~F2 AF EFDE|F3 A BAFB|ABde fd d2||
(3ddd dB ADFA|~d3 e fgfe|defd AFDF|(3GFE (3FED EB,B,D|
~d3 B ADFA|dcde fgfe|defd AFDF|(3GFE (3FED EB,B,D||
~d3 e fded|~d2 de fBBc|defd ecdB|AGFD EB,B,D|
~d3 e fded|d2 de fBBf|(3gag (3fgf (3efe dB|ABde|fddA||
|:DFAF BFAF|DFAF EA,A,2|DAAc BAFB|1 ABde fddA:|2 ABde fdde||
{e}dcBF BFDB|FEDE DB,B,D|D2 FD GDFD|ABde fgfe|
dB (3BBB BAFB|AFEG|FDDE|F2 AF BFAF|ABde fd d2||
fa (3aaa abaf|g2 fg edBd|fa (3aaa abaf|ABde fdde|
fgag abaf|~g2 fg edBG|(3FFF AF GABG|ABde fd d2||

